vectors/jira/jira.svg

<svg version="1.1" xmlns="http://www.w3.org/2000/svg" xmlns:xlink="http://www.w3.org/1999/xlink" viewBox="0 0 256 256">
    <defs>
        <linearGradient id="linearGradient-1" x1="98.0308675%" x2="58.8877062%" y1="0.160599572%" y2="40.7655246%">
            <stop offset="18%" stop-color="#0052CC" />
            <stop offset="100%" stop-color="#2684FF" />
        </linearGradient>
        <linearGradient id="linearGradient-2" x1="100.665247%" x2="55.4018095%" y1="0.45503212%" y2="44.7269807%">
            <stop offset="18%" stop-color="#0052CC" />
            <stop offset="100%" stop-color="#2684FF" />
        </linearGradient>
    </defs>
    <g>
				<path d="M244.657778,0 L121.706667,0 C121.706667,14.7201046 127.554205,28.837312 137.962891,39.2459977 C148.371577,49.6546835 162.488784,55.5022222 177.208889,55.5022222 L199.857778,55.5022222 L199.857778,77.3688889 C199.877391,107.994155 224.699178,132.815943 255.324444,132.835556 L255.324444,10.6666667 C255.324444,4.77562934 250.548815,3.60722001e-16 244.657778,0 Z" fill="#2684FF" />
				<path d="M183.822222,61.2622222 L60.8711111,61.2622222 C60.8907238,91.8874888 85.7125112,116.709276 116.337778,116.728889 L138.986667,116.728889 L138.986667,138.666667 C139.025905,169.291923 163.863607,194.097803 194.488889,194.097778 L194.488889,71.9288889 C194.488889,66.0378516 189.71326,61.2622222 183.822222,61.2622222 Z" fill="url(#linearGradient-1)" />
				<path d="M122.951111,122.488889 L0,122.488889 C3.75391362e-15,153.14192 24.8491913,177.991111 55.5022222,177.991111 L78.2222222,177.991111 L78.2222222,199.857778 C78.241767,230.45532 103.020285,255.265647 133.617778,255.324444 L133.617778,133.155556 C133.617778,127.264518 128.842148,122.488889 122.951111,122.488889 Z" fill="url(#linearGradient-2)" />
		</g>
</svg>

<svg xmlns="http://www.w3.org/2000/svg" viewBox="0 0 256 256"><defs><linearGradient id="a" x1="98.031%" x2="58.888%" y1=".161%" y2="40.766%"><stop offset="18%" stop-color="#0052CC"/><stop offset="100%" stop-color="#2684FF"/></linearGradient><linearGradient id="b" x1="100.665%" x2="55.402%" y1=".455%" y2="44.727%"><stop offset="18%" stop-color="#0052CC"/><stop offset="100%" stop-color="#2684FF"/></linearGradient></defs><path d="M244.658 0H121.707a55.502 55.502 0 0055.502 55.502h22.649V77.37c.02 30.625 24.841 55.447 55.466 55.467V10.666C255.324 4.777 250.55 0 244.658 0z" fill="#2684FF"/><path d="M183.822 61.262H60.872c.019 30.625 24.84 55.447 55.466 55.467h22.649v21.938c.039 30.625 24.877 55.43 55.502 55.43V71.93c0-5.891-4.776-10.667-10.667-10.667z" fill="url(#a)"/><path d="M122.951 122.489H0c0 30.653 24.85 55.502 55.502 55.502h22.72v21.867c.02 30.597 24.798 55.408 55.396 55.466V133.156c0-5.891-4.776-10.667-10.667-10.667z" fill="url(#b)"/></svg>
